X:1
T:Aald St\"or Back Again
R:Reel
M:C|
%%printtempo 0
Q:180
K:Em
(D|\
"Em"TE2) EF GAB2|"D" (uAB)AF ABA(uF|"Em"TE)DEF GAB(ue|"D" d)BAF "Em"E2E:|
(uB|\
"Em"e2) ve(uB e2) ve(uB|"D" d2) dB ded(uB| "Em"e2) veB efe(uB|"D"dB)AF "Em"E3 (uB|
"Em"e2) ve(uB e2) ve(uB|"D" d2) dB ded(uB| "Em"e2) veB egf(ue|"D" dB)AF "Em"E2 E|]
